dist/img/icons/input-search.svg

<svg width="16" height="17" viewBox="0 0 16 17" fill="none" xmlns="http://www.w3.org/2000/svg">
<path d="M7.29265 1.7876C3.98683 1.7876 1.29395 4.48048 1.29395 7.78631C1.29395 11.0921 3.98683 13.7902 7.29265 13.7902C8.70466 13.7902 10.0033 13.2954 11.0296 12.4738L13.5283 14.9712C13.6544 15.0921 13.8228 15.1588 13.9975 15.157C14.1722 15.1552 14.3392 15.0851 14.4628 14.9617C14.5864 14.8382 14.6567 14.6713 14.6588 14.4967C14.6608 14.322 14.5943 14.1535 14.4736 14.0272L11.9749 11.5285C12.7972 10.5006 13.2926 9.19995 13.2926 7.78631C13.2926 4.48048 10.5985 1.7876 7.29265 1.7876ZM7.29265 3.12095C9.87787 3.12095 11.958 5.20108 11.958 7.78631C11.958 10.3715 9.87787 12.4569 7.29265 12.4569C4.70742 12.4569 2.62728 10.3715 2.62728 7.78631C2.62728 5.20108 4.70742 3.12095 7.29265 3.12095Z" fill="#8F8F94"/>
</svg>

<svg width="16" height="17" fill="none" xmlns="http://www.w3.org/2000/svg"><path d="M7.293 1.788a6.008 6.008 0 00-6 5.998c.001 3.306 2.694 6.004 6 6.004 1.412 0 2.71-.495 3.737-1.316l2.498 2.497a.668.668 0 00.946-.944l-2.5-2.498a5.973 5.973 0 001.319-3.743 6.009 6.009 0 00-6-5.998zm0 1.333a4.654 4.654 0 014.665 4.665c0 2.585-2.08 4.67-4.665 4.67a4.659 4.659 0 01-4.666-4.67 4.654 4.654 0 014.666-4.665z" fill="#8F8F94"/></svg>
